docs/img/note-red.svg

<svg width="20" height="20" viewBox="0 0 20 20" fill="none" xmlns="http://www.w3.org/2000/svg"><path fill-rule="evenodd" clip-rule="evenodd" d="M11 5H9v6h2V5zm-1 15c5.5 0 10-4.5 10-10S15.5 0 10 0 0 4.5 0 10s4.5 10 10 10zm0-18c4.4 0 8 3.6 8 8s-3.6 8-8 8-8-3.6-8-8 3.6-8 8-8zm1 11H9v2h2v-2z" fill="#D44230"/></svg>

<svg width="20" height="20" viewBox="0 0 20 20" fill="none" xmlns="http://www.w3.org/2000/svg">
<path fill-rule="evenodd" clip-rule="evenodd" d="M11 5H9V11H11V5ZM10 20C15.5 20 20 15.5 20 10C20 4.5 15.5 0 10 0C4.5 0 0 4.5 0 10C0 15.5 4.5 20 10 20ZM10 2C14.4 2 18 5.6 18 10C18 14.4 14.4 18 10 18C5.6 18 2 14.4 2 10C2 5.6 5.6 2 10 2ZM11 13L9 13V15L11 15V13Z" fill="#D44230"/>
</svg>
